src/ui/clock.svg

<?xml version="1.0" encoding="UTF-8"?><svg xmlns="http://www.w3.org/2000/svg" viewBox="0 0 32 32"><defs><style>.uuid-2d5063f7-4c4c-4439-8386-d75a5cf1ad15{fill:none;}.uuid-2d5063f7-4c4c-4439-8386-d75a5cf1ad15,.uuid-88438b58-0e41-463d-b64d-bbe94252e23c{stroke-width:0px;}.uuid-88438b58-0e41-463d-b64d-bbe94252e23c{fill:#151515;}</style></defs><g id="uuid-68d2af0c-2f92-4ec2-ac45-0bd5c90f0730"><rect class="uuid-2d5063f7-4c4c-4439-8386-d75a5cf1ad15" x="0" width="32" height="32"/></g><g id="uuid-63effb7b-ac5f-4b63-9a6f-6c352c108985"><path class="uuid-88438b58-0e41-463d-b64d-bbe94252e23c" d="M16,0C7.1777,0,0,7.1777,0,16s7.1777,16,16,16,16-7.1777,16-16S24.8223,0,16,0ZM17,29.9493v-2.9493c0-.5522-.4478-1-1-1s-1,.4478-1,1v2.9493c-6.9213-.4927-12.4567-6.0281-12.9493-12.9493h2.9493c.5522,0,1-.4478,1-1s-.4478-1-1-1h-2.9493c.5163-7.2529,6.5671-13,13.9493-13s13.433,5.7471,13.9493,13h-2.9493c-.5522,0-1,.4478-1,1s.4478,1,1,1h2.9493c-.4927,6.9213-6.0281,12.4567-12.9493,12.9493Z"/><path class="uuid-88438b58-0e41-463d-b64d-bbe94252e23c" d="M17,15.5859V7c0-.5522-.4478-1-1-1s-1,.4478-1,1v9c0,.2651.1055.5195.293.707l4,4c.1953.1953.4512.293.707.293s.5117-.0977.707-.293c.3906-.3906.3906-1.0234,0-1.4141l-3.707-3.707Z"/></g></svg>

<svg xmlns="http://www.w3.org/2000/svg" viewBox="0 0 32 32">
  <defs>
    <style>
      .uuid-88438b58-0e41-463d-b64d-bbe94252e23c{stroke-width:0;fill:#151515}
    </style>
  </defs>
  <path d="M0 0h32v32H0z" id="uuid-68d2af0c-2f92-4ec2-ac45-0bd5c90f0730" stroke-width="0" fill="none"/>
  <g id="uuid-63effb7b-ac5f-4b63-9a6f-6c352c108985">
    <path class="uuid-88438b58-0e41-463d-b64d-bbe94252e23c" d="M16 0C7.178 0 0 7.178 0 16s7.178 16 16 16 16-7.178 16-16S24.822 0 16 0Zm1 29.95V27a1 1 0 0 0-2 0v2.95C8.079 29.456 2.543 23.92 2.05 17H5a1 1 0 0 0 0-2H2.05C2.568 7.747 8.619 2 16 2s13.433 5.747 13.95 13H27a1 1 0 0 0 0 2h2.95c-.494 6.921-6.03 12.457-12.95 12.95Z"/>
    <path class="uuid-88438b58-0e41-463d-b64d-bbe94252e23c" d="M17 15.586V7a1 1 0 0 0-2 0v9a1 1 0 0 0 .293.707l4 4a.997.997 0 0 0 1.414 0 1 1 0 0 0 0-1.414L17 15.586Z"/>
  </g>
</svg>
